!!!SOCIAL_FUNCTION:	cheyenne war song
!!!PDT:	1936
!!!OTL: No_10_Return_of_the_Warriors.krn
!!!REG: Oklahoma and Montana
!!!LANG: Tone
!!!LING_GROUP: Algonquin
**kern
*staff1
=1-
*clefF4
*k[b-e-a-d-]
*M3/8
8e-\L
16e-\L
16e-\J
8e-\J
=2
*M5/8
16f\LL
[16e-\
16e-\]
16dn\J
[8e-\
16e-\L]
16d\
16e-\
16d\JJ
=3
*M3/8
16e-\LL
16B-\J
8A-\
16A-\Jk
16r
=4
*M5/8
8e-\L
16f\L
16e-\J
8e-\J
4e-\
=5
*M4/8
16f\LL
16e-\JJ
[8e-\
16e-\LL]
16dn\JJ
16e-\LL
16d\JJ
=6
*M3/8
16e-\LL
16B-\J
8A-\J
8r
=7
8.e-\L
16dn\L
16e-\
16c\JJ
=8
16e-\LL
[16B-\
16B-\]
16e-\
16e-\
16B-\JJ
=9
8A-\L
8A-\J
8r
=10
8.A-\L
16A-\L
16B-\
16A-\JJ
=11
*M2/4
16B-\LK
8.A-\J
4A-\
=12
*M3/4
8E-\L
8E-\J
8E-\L
8E-\J
8E-\
8r
=13
*M2/4
16B-\LK
8.B-\J
16B-\LK
8.B-\J
=14
*M3/8
16c\LL
16B-\J
8A-\
8A-\J
=15
8.e-\L
16B-\L
16e-\
16dn\JJ
=16
*M2/4
16e-\LL
[16B-\J
8B-\J_
16B-\LL]
16d-\
16d-\
16B-\JJ
=17
4A-\
8A-\
8r
=18
*M3/8
8.A-\L
16A-\L
16B-\
16A-\JJ
=19
*M2/4
16B-\LK
8.A-\J
4A-\
=20
*M3/4
8E-\L
8E-\J
(16E-\LL
16Dn\JJ)
16r
16E-\
16E-\LL
32D\JJk
32r
16A-\LL
16E-\JJ
=21
*M2/4
4E-\
16E-\
16r
16A-\LL
16E-\JJ
=22
4E-\
8E-\
8r
==
*-
